X:1
T:Title
%%score { ( 1 3 ) | ( 2 4 5 ) }
L:1/8
M:4/4
K:F
V:1 treble nm="Grand Piano"
V:3 treble 
V:2 bass 
V:4 bass 
V:5 bass 
V:1
 z4 z2[Q:1/4=100] [Af]2 | [Ae]2 [Ad]2 [Ac]2 c2 | c4 z4 | F2 F2 [B,FG]2 [CFA]2 |[M:3/4] B4 z2 | %5
[M:1/4] [Fd]2 |[M:4/4] [Fc]2 [FB]2 [FA]2 A2 | A4 z4 | [F=B]2 [Gc]2 e3 d |[M:3/4] [Ec]4 z2 | %10
[M:1/4] [Ec]2 |[M:4/4] [Eg]3 [Ee] [Fd]2 [Gc]2 | c2 =B2 c2 [G^c]2 | d3 _e [Gd]2 [Ac]2 | B6 z2 | %15
 [Cc]2 [CEc]2 [DFc]2 [EGc]2 | [Fc]2 ^c2 [DFd]2 [Ge]2 | f4 z4 |[M:3/4] [A,F]6 |] %19
V:2
 z4 z2 [F,C]2 | [F,C]2 [F,C]2 [F,C]2[K:treble] [CFA]2 | [B,EG]2[K:bass] A,2 [G,CE]2 [F,A,]2 | %3
 [E,A,]2 [D,A,]2 B,,2 A,,2 |[M:3/4] z2 C4 |[M:1/4] [D,A,]2 | %6
[M:4/4] [D,A,]2 [D,A,]2 [D,A,]2[K:treble] [A,DF]2 | [G,^CE]2[K:bass] F,2 [E,A,C]2 [D,F,D]2 | %8
 [D,G,]2 [E,G,]2 [F,C]2 [G,=B,]2 |[M:3/4] [C,C]4 z2 |[M:1/4] [C,C]2 | %11
[M:4/4] [C,B,]3 [C,B,] [D,B,]2 [E,B,]2 | [F,F]4 z4 | [D,A,]2 [D,A,]2 [E,A,]2 [^F,D]2 | %14
 z4[K:bass] G4- | G2 z2 z4 | z2 _E2 B,,2 [C,B,]2 | [D,A,]2 [D,=B,]2 C,2 C,2 |[M:3/4] F,6 |] %19
V:3
 x8 | x8 | z2 F2 c2 F2 | x8 |[M:3/4] [DF]2 E2 [FA]2 |[M:1/4] x2 |[M:4/4] x8 | z2 D2 A2 A2 | %8
 z4 A2 F2 |[M:3/4] x6 |[M:1/4] x2 |[M:4/4] x8 | x8 | ^F2 F2 z4 | z2 D4 [D=B]2 | x8 | x8 | %17
 F2 FF [CFG]2 [B,EA]2 |[M:3/4] x6 |] %19
V:4
 x8 | x6[K:treble] x2 | x2[K:bass] x6 | x8 |[M:3/4] G,,4 z2 |[M:1/4] x2 |[M:4/4] x6[K:treble] x2 | %7
 x2[K:bass] x6 | x8 |[M:3/4] x6 |[M:1/4] x2 |[M:4/4] x8 | A,2 _A,2 [F,=A,F]2 [_E,A,]2 | x8 | %14
 G,6[K:bass] z2 | x8 | A,,4 z4 | x8 |[M:3/4] x6 |] %19
V:5
 x8 | x6[K:treble] x2 | x2[K:bass] x6 | x8 |[M:3/4] z2 z2 F,,2 |[M:1/4] x2 | %6
[M:4/4] x6[K:treble] x2 | x2[K:bass] x6 | x8 |[M:3/4] x6 |[M:1/4] x2 |[M:4/4] x8 | x8 | x8 | %14
 [DG]2 z2[K:bass] z2 F,2 | E,2 C,2 B,,2 B,,2 | x8 | x8 |[M:3/4] x6 |] %19

